X:52
T:Miss Stewart Mitchell's Reel
C:Robert Petrie
S:Petrie's Collection of Strathspey Reels and Country Dances &c., 1790
Z:Steve Wyrick , 3/20/04
N:Petrie's First Collection, page 20
L:1/8
M:C
R:Reel
K:E
B|E2 G>B        eBGE   |AcGB cFFG|E2GB  egbg   |faTg>f  gee :|
g|bgeg          f(dTcB)|ecBG AFFg|bgeg .f(dTcB)|c(aTgf) geeg |
 (b/a/g/f/ e).g f(dTcB)|cABG AFFG|EGAF  GBeg   |afba    gee |]
